src/xmb/flatui/Rick Dangerous-content.svg

<?xml version="1.0" encoding="UTF-8" standalone="no"?>
<svg
   xmlns:dc="http://purl.org/dc/elements/1.1/"
   xmlns:cc="http://creativecommons.org/ns#"
   xmlns:rdf="http://www.w3.org/1999/02/22-rdf-syntax-ns#"
   xmlns:svg="http://www.w3.org/2000/svg"
   xmlns="http://www.w3.org/2000/svg"
   xmlns:sodipodi="http://sodipodi.sourceforge.net/DTD/sodipodi-0.dtd"
   xmlns:inkscape="http://www.inkscape.org/namespaces/inkscape"
   viewBox="0 0 341.33334 341.33334"
   height="256"
   width="256"
   xml:space="preserve"
   id="svg2"
   version="1.1"
   sodipodi:docname="Rick Dangerous-content.svg"
   inkscape:version="0.92.3 (2405546, 2018-03-11)"
   inkscape:export-filename="C:\Users\Alfre\AppData\Roaming\RetroArch\assets\xmb\custom\png\Rick Dangerous-content.png"
   inkscape:export-xdpi="96"
   inkscape:export-ydpi="96"><sodipodi:namedview
     pagecolor="#ffffff"
     bordercolor="#666666"
     borderopacity="1"
     objecttolerance="10"
     gridtolerance="10"
     guidetolerance="10"
     inkscape:pageopacity="0"
     inkscape:pageshadow="2"
     inkscape:window-width="1024"
     inkscape:window-height="705"
     id="namedview80"
     showgrid="false"
     inkscape:pagecheckerboard="true"
     inkscape:zoom="1.3828124"
     inkscape:cx="137.98903"
     inkscape:cy="115.97501"
     inkscape:window-x="-8"
     inkscape:window-y="-8"
     inkscape:window-maximized="1"
     inkscape:current-layer="svg2" /><metadata
     id="metadata8"><rdf:RDF><cc:Work
         rdf:about=""><dc:format>image/svg+xml</dc:format><dc:type
           rdf:resource="http://purl.org/dc/dcmitype/StillImage" /><dc:title /></cc:Work></rdf:RDF></metadata><defs
     id="defs6"><clipPath
       id="clipPath18"
       clipPathUnits="userSpaceOnUse"><path
         id="path16"
         d="M 0,256 H 256 V 0 H 0 Z" /></clipPath><clipPath
       id="clipPath26"
       clipPathUnits="userSpaceOnUse"><path
         id="path24"
         d="M 30,248 H 226 V 12 H 30 Z" /></clipPath></defs><g
     id="g22"
     transform="matrix(1.3333333,0,0,-1.3333333,0,341.33333)" /><path
     style="fill:#2c3e50;fill-opacity:1;fill-rule:nonzero;stroke:none;stroke-width:0.99999994"
     d="M 42 16 C 39.791 16 38 17.791 38 20 L 38 232 C 38 234.209 39.791 236 42 236 L 214 236 C 216.209 236 218 234.209 218 232 L 218 20 C 218 17.791 216.209 16 214 16 L 84 16 L 84 24 L 80 24 L 77.332031 16 L 42 16 z M 184 28 C 186.209 28 188 29.791 188 32 C 188 34.209 186.209 36 184 36 C 181.791 36 180 34.209 180 32 C 180 29.791 181.791 28 184 28 z M 68.541016 28.636719 L 75.458984 28.636719 C 76.307461 29.50908 76.835938 30.694431 76.835938 32 C 76.835938 33.301096 76.310137 34.481997 75.466797 35.353516 L 68.533203 35.353516 C 67.689863 34.481997 67.164062 33.301096 67.164062 32 C 67.164062 30.694431 67.69254 29.50908 68.541016 28.636719 z M 128 108 C 130.209 108 132 109.791 132 112 C 132 114.209 130.209 116 128 116 C 125.791 116 124 114.209 124 112 C 124 109.791 125.791 108 128 108 z "
     transform="scale(1.3333334)"
     id="path38" /><path
     style="fill:#34495e;fill-opacity:1;fill-rule:nonzero;stroke:none;stroke-width:0.99999994"
     d="M 184 24 C 179.6 24 176 27.6 176 32 C 176 36.399999 179.6 40 184 40 C 188.4 40 192 36.399999 192 32 C 192 27.6 188.4 24 184 24 z M 184 28 C 186.209 28 188 29.791 188 32 C 188 34.209 186.209 36 184 36 C 181.791 36 180 34.209 180 32 C 180 29.791 181.791 28 184 28 z "
     transform="scale(1.3333334)"
     id="path42" /><path
     style="fill:#34495e;fill-opacity:1;fill-rule:nonzero;stroke:none;stroke-width:0.99999994"
     d="M 72 24 C 67.6 24 64 27.6 64 32 C 64 36.399999 67.6 40 72 40 C 76.399996 40 80 36.399999 80 32 C 80 27.6 76.399996 24 72 24 z M 68.541016 28.636719 L 75.458984 28.636719 C 76.307461 29.50908 76.835938 30.694431 76.835938 32 C 76.835938 33.301096 76.310137 34.481997 75.466797 35.353516 L 68.533203 35.353516 C 67.689863 34.481997 67.164062 33.301096 67.164062 32 C 67.164062 30.694431 67.69254 29.50908 68.541016 28.636719 z "
     transform="scale(1.3333334)"
     id="path46" /><path
     id="path50"
     style="fill:#34495e;fill-opacity:1;fill-rule:nonzero;stroke:none;stroke-width:1.33333325"
     d="m 170.66666,202.66667 v 0 c -5.86667,0 -10.66667,-4.8 -10.66667,-10.66667 0,-5.86666 4.8,-10.66666 10.66667,-10.66666 5.86667,0 10.66667,4.8 10.66667,10.66666 0,5.86667 -4.8,10.66667 -10.66667,10.66667"
     inkscape:connector-curvature="0" /><path
     id="path54"
     style="fill:#7f8c8d;fill-opacity:1;fill-rule:nonzero;stroke:none;stroke-width:1.33333325;font-variant-east_asian:normal;opacity:1;vector-effect:none;stroke-linecap:butt;stroke-linejoin:miter;stroke-miterlimit:4;stroke-dasharray:none;stroke-dashoffset:0;stroke-opacity:1"
     d="m 170.66666,106.66667 v 0 c -10.30933,0 -18.66667,-8.357333 -18.66667,-18.666666 V 56.000005 c 0,-10.309333 8.35734,-18.666667 18.66667,-18.666667 10.30933,0 18.66667,8.357334 18.66667,18.666667 v 31.999999 c 0,10.309333 -8.35734,18.666666 -18.66667,18.666666"
     inkscape:connector-curvature="0" /><path
     id="path58"
     style="fill:#ecf0f1;fill-opacity:1;fill-rule:nonzero;stroke:none;stroke-width:1.33333325"
     d="M 277.33333,314.66666 H 64.000002 V 224 c 0,-2.94534 2.388,-5.33334 5.333333,-5.33334 H 272 c 2.94533,0 5.33333,2.388 5.33333,5.33334 z"
     inkscape:connector-curvature="0" /><path
     id="path66"
     style="opacity:1;vector-effect:none;fill:#7f8c8d;fill-opacity:1;fill-rule:nonzero;stroke:none;stroke-width:1.8154428;stroke-linecap:butt;stroke-linejoin:miter;stroke-miterlimit:4;stroke-dasharray:none;stroke-dashoffset:0;stroke-opacity:1"
     d="m 170.66666,199.26177 v 0 c -4.01031,0 -7.26177,-3.25146 -7.26177,-7.26177 0,-4.01032 3.25146,-7.26178 7.26177,-7.26178 4.01031,0 7.26177,3.25146 7.26177,7.26178 0,4.01031 -3.25146,7.26177 -7.26177,7.26177"
     inkscape:connector-curvature="0" /><path
     style="fill:#bdc3c7;fill-opacity:1;fill-rule:nonzero;stroke:none;stroke-width:0.99999994"
     d="M 128 92 C 116.954 92 108 100.954 108 112 C 108 123.046 116.954 132 128 132 C 139.046 132 148 123.046 148 112 C 148 100.954 139.046 92 128 92 z M 128 108 C 130.209 108 132 109.791 132 112 C 132 114.209 130.209 116 128 116 C 125.791 116 124 114.209 124 112 C 124 109.791 125.791 108 128 108 z "
     transform="scale(1.3333334)"
     id="path70" /><path
     style="fill:#ecf0f1;fill-opacity:1;fill-rule:nonzero;stroke:none;stroke-width:0.99999994"
     d="M 128 96 C 119.164 96 112 103.164 112 112 C 112 120.836 119.164 128 128 128 C 136.83699 128 144 120.836 144 112 C 144 103.164 136.83699 96 128 96 z M 128 108 C 130.209 108 132 109.791 132 112 C 132 114.209 130.209 116 128 116 C 125.791 116 124 114.209 124 112 C 124 109.791 125.791 108 128 108 z "
     transform="scale(1.3333334)"
     id="path74" /><path
     style="fill:#bdc3c7;fill-opacity:1;fill-rule:nonzero;stroke:none;stroke-width:0.99999994"
     d="M 128 98 C 120.268 98 114 104.268 114 112 C 114 119.732 120.268 126 128 126 C 135.732 126 142 119.732 142 112 C 142 104.268 135.732 98 128 98 z M 128 108 C 130.209 108 132 109.791 132 112 C 132 114.209 130.209 116 128 116 C 125.791 116 124 114.209 124 112 C 124 109.791 125.791 108 128 108 z "
     transform="scale(1.3333334)"
     id="path78" /><path
     id="path82"
     style="fill:#7f8c8d;fill-opacity:1;fill-rule:nonzero;stroke:none;stroke-width:1.33333325"
     d="m 79.999998,32.000004 c 0,2.945333 -2.388,5.333333 -5.333333,5.333333 -2.945333,0 -5.333333,-2.388 -5.333333,-5.333333 0,-2.945333 2.388,-5.333333 5.333333,-5.333333 2.945333,0 5.333333,2.388 5.333333,5.333333"
     inkscape:connector-curvature="0" /><path
     id="path86"
     style="fill:#7f8c8d;fill-opacity:1;fill-rule:nonzero;stroke:none;stroke-width:1.33333325"
     d="m 271.99999,32.000004 c 0,2.945333 -2.388,5.333333 -5.33333,5.333333 -2.94534,0 -5.33334,-2.388 -5.33334,-5.333333 0,-2.945333 2.388,-5.333333 5.33334,-5.333333 2.94533,0 5.33333,2.388 5.33333,5.333333"
     inkscape:connector-curvature="0" /><path
     style="fill:#ecf0f1;fill-opacity:1;fill-rule:nonzero;stroke:#cccccc;stroke-width:0.99999994;stroke-opacity:1"
     d="M 128 104 C 123.58201 104 120 107.582 120 112 C 120 116.418 123.58201 120 128 120 C 132.418 120 136 116.418 136 112 C 136 107.582 132.418 104 128 104 z M 128 108 C 130.209 108 132 109.791 132 112 C 132 114.209 130.209 116 128 116 C 125.791 116 124 114.209 124 112 C 124 111.72387 124.02874 111.45374 124.08203 111.19336 C 124.45504 109.3707 126.06712 108 128 108 z "
     transform="scale(1.3333334)"
     id="path90" /></svg>

<svg xmlns="http://www.w3.org/2000/svg" xml:space="preserve" width="256" height="256" viewBox="0 0 341.333 341.333"><path d="M42 16a4 4 0 0 0-4 4v212a4 4 0 0 0 4 4h172a4 4 0 0 0 4-4V20a4 4 0 0 0-4-4H84v8h-4l-2.668-8zm142 12a4 4 0 1 1 0 8 4 4 0 0 1 0-8m-115.459.637h6.918A4.8 4.8 0 0 1 76.836 32a4.8 4.8 0 0 1-1.37 3.354h-6.933A4.8 4.8 0 0 1 67.164 32c0-1.306.529-2.49 1.377-3.363M128 108a4 4 0 1 1 0 8 4 4 0 0 1 0-8" style="fill:#2c3e50;fill-opacity:1;fill-rule:nonzero;stroke:none;stroke-width:.99999994" transform="scale(1.33333)"/><path d="M184 24c-4.4 0-8 3.6-8 8s3.6 8 8 8 8-3.6 8-8-3.6-8-8-8m0 4a4 4 0 1 1 0 8 4 4 0 0 1 0-8M72 24c-4.4 0-8 3.6-8 8s3.6 8 8 8 8-3.6 8-8-3.6-8-8-8m-3.459 4.637h6.918A4.8 4.8 0 0 1 76.836 32a4.8 4.8 0 0 1-1.37 3.354h-6.933A4.8 4.8 0 0 1 67.164 32c0-1.306.529-2.49 1.377-3.363" style="fill:#34495e;fill-opacity:1;fill-rule:nonzero;stroke:none;stroke-width:.99999994" transform="scale(1.33333)"/><path d="M170.667 202.667c-5.867 0-10.667-4.8-10.667-10.667s4.8-10.667 10.667-10.667c5.866 0 10.666 4.8 10.666 10.667s-4.8 10.667-10.666 10.667" style="fill:#34495e;fill-opacity:1;fill-rule:nonzero;stroke:none;stroke-width:1.33333325"/><path d="M170.667 106.667C160.357 106.667 152 98.309 152 88V56c0-10.31 8.357-18.667 18.667-18.667 10.309 0 18.666 8.358 18.666 18.667v32c0 10.31-8.357 18.667-18.666 18.667" style="fill:#7f8c8d;fill-opacity:1;fill-rule:nonzero;stroke:none;stroke-width:1.33333325;font-variant-east_asian:normal;opacity:1;vector-effect:none;stroke-linecap:butt;stroke-linejoin:miter;stroke-miterlimit:4;stroke-dasharray:none;stroke-dashoffset:0;stroke-opacity:1"/><path d="M277.333 314.667H64V224a5.334 5.334 0 0 1 5.333-5.333H272a5.334 5.334 0 0 1 5.333 5.333z" style="fill:#ecf0f1;fill-opacity:1;fill-rule:nonzero;stroke:none;stroke-width:1.33333325"/><path d="M170.667 199.262a7.262 7.262 0 1 1 0-14.524 7.262 7.262 0 0 1 0 14.524" style="opacity:1;vector-effect:none;fill:#7f8c8d;fill-opacity:1;fill-rule:nonzero;stroke:none;stroke-width:1.8154428;stroke-linecap:butt;stroke-linejoin:miter;stroke-miterlimit:4;stroke-dasharray:none;stroke-dashoffset:0;stroke-opacity:1"/><path d="M128 92c-11.046 0-20 8.954-20 20s8.954 20 20 20 20-8.954 20-20-8.954-20-20-20m0 16a4 4 0 1 1 0 8 4 4 0 0 1 0-8" style="fill:#bdc3c7;fill-opacity:1;fill-rule:nonzero;stroke:none;stroke-width:.99999994" transform="scale(1.33333)"/><path d="M128 96c-8.836 0-16 7.164-16 16s7.164 16 16 16 16-7.164 16-16-7.163-16-16-16m0 12a4 4 0 1 1 0 8 4 4 0 0 1 0-8" style="fill:#ecf0f1;fill-opacity:1;fill-rule:nonzero;stroke:none;stroke-width:.99999994" transform="scale(1.33333)"/><path d="M128 98c-7.732 0-14 6.268-14 14s6.268 14 14 14 14-6.268 14-14-6.268-14-14-14m0 10a4 4 0 1 1 0 8 4 4 0 0 1 0-8" style="fill:#bdc3c7;fill-opacity:1;fill-rule:nonzero;stroke:none;stroke-width:.99999994" transform="scale(1.33333)"/><path d="M80 32a5.334 5.334 0 1 1-10.667 0A5.334 5.334 0 0 1 80 32m192 0a5.334 5.334 0 1 1-10.667 0A5.334 5.334 0 0 1 272 32" style="fill:#7f8c8d;fill-opacity:1;fill-rule:nonzero;stroke:none;stroke-width:1.33333325"/><path d="M128 104a8 8 0 1 0 0 16 8 8 0 0 0 0-16zm0 4a4 4 0 1 1 0 8 4 4 0 0 1 0-8z" style="fill:#ecf0f1;fill-opacity:1;fill-rule:nonzero;stroke:#ccc;stroke-width:.99999994;stroke-opacity:1" transform="scale(1.33333)"/></svg>
